X:1
T:Le Canal in Octobre
M:4/4
L:1/8
R:schottische
K:Gmaj
|: GA | B3B cBAG | B3B cBAG | EFGB A3 G | FGEF D2 GA |
B3B cBAG | B2 BB cBAG | EFGB A2 F2 | G2 GB G2 :|
|: Bc | d3d cBAG | d3d cBAG | EFGB A3 G | FGEF D2 Bc |
d3d cBAG | d3d cBAG | EFGB A2 F2 | G2 GB G2 :|
